src/img/sass.svg

<svg width="38" height="38" viewBox="0 0 38 38" fill="none" xmlns="http://www.w3.org/2000/svg">
<path d="M32.1439 20.6761C30.8696 20.6818 29.7661 20.9936 28.8446 21.4554C28.5089 20.7683 28.1619 20.1681 28.105 19.7179C28.0369 19.1926 27.9628 18.881 28.0425 18.2576C28.1222 17.6341 28.4804 16.7509 28.4748 16.6875C28.4692 16.6241 28.3952 16.3065 27.6614 16.3007C26.9276 16.295 26.2962 16.445 26.2222 16.6413C26.1481 16.8375 26.0061 17.2821 25.9207 17.7438C25.7899 18.4191 24.453 20.8319 23.6964 22.0902C23.4461 21.5997 23.2357 21.1667 23.1901 20.8204C23.1218 20.295 23.0479 19.9834 23.1275 19.36C23.2072 18.7365 23.5655 17.8534 23.5598 17.79C23.5541 17.7265 23.4802 17.409 22.7464 17.4032C22.0125 17.3975 21.3813 17.5475 21.3072 17.7438C21.2332 17.94 21.1536 18.4018 21.0057 18.8464C20.8579 19.2906 19.0773 23.308 18.6108 24.3529C18.3718 24.8838 18.1672 25.311 18.0192 25.5997C17.9965 25.6458 17.9794 25.6747 17.968 25.6979C17.9851 25.669 17.9965 25.64 17.9965 25.6518C17.8714 25.8998 17.7974 26.0384 17.7974 26.0384V26.0441C17.7006 26.2288 17.5926 26.3961 17.5414 26.3961C17.5072 26.3961 17.4333 25.9114 17.5585 25.2475C17.8258 23.8507 18.4572 21.6805 18.4515 21.6054C18.4458 21.5649 18.5709 21.1898 18.0362 20.9877C17.5186 20.7972 17.3308 21.1148 17.2854 21.1148C17.2399 21.1148 17.2057 21.2303 17.2057 21.2303C17.2057 21.2303 17.7803 18.7829 16.1021 18.7829C15.0555 18.7829 13.5993 19.9489 12.8826 21.0052C12.4331 21.2534 11.4603 21.7902 10.4365 22.3616C10.0439 22.581 9.64003 22.806 9.25892 23.0196C9.2305 22.9907 9.2077 22.9618 9.17928 22.933C7.14278 20.7281 3.38264 19.1697 3.54201 16.2084C3.59885 15.1291 3.96864 12.2951 10.7721 8.85486C16.3469 6.03808 20.8067 6.81158 21.5748 8.53161C22.6782 10.9848 19.1911 15.5505 13.4002 16.2084C11.1931 16.4567 10.0327 15.5909 9.74255 15.2677C9.44101 14.9272 9.39548 14.9097 9.28172 14.9733C9.09394 15.0772 9.21348 15.3774 9.28172 15.5562C9.45241 16.0122 10.1634 16.8203 11.3751 17.2244C12.4388 17.5765 15.0271 17.7728 18.1558 16.5433C21.6713 15.1695 24.4075 11.3425 23.6054 8.13912C22.7863 4.88373 17.4675 3.81582 12.4332 5.62823C9.43538 6.70763 6.19293 8.40469 3.86058 10.6153C1.09027 13.2475 0.646619 15.5389 0.828546 16.4972C1.47708 19.8968 6.09611 22.1134 7.9449 23.7526C7.85386 23.8046 7.76852 23.8507 7.68895 23.8969C6.76174 24.3644 3.24054 26.2345 2.35877 28.2088C1.3634 30.4483 2.52368 32.0529 3.28598 32.2723C5.66377 32.9418 8.09849 31.7355 9.40689 29.7556C10.7151 27.7758 10.5559 25.1899 9.95298 24.0124C9.9472 23.9951 9.93588 23.9837 9.93026 23.9662C10.1691 23.822 10.4137 23.6776 10.6584 23.5334C11.1304 23.2505 11.5913 22.9907 11.9951 22.7657C11.7675 23.3892 11.6026 24.1392 11.5173 25.2246C11.4149 26.4943 11.9326 28.1394 12.6038 28.7859C12.8995 29.0688 13.2579 29.0746 13.4798 29.0746C14.2648 29.0746 14.6174 28.4165 15.01 27.6315C15.4935 26.6731 15.9201 25.5591 15.9201 25.5591C15.9201 25.5591 15.3854 28.5724 16.8474 28.5724C17.382 28.5724 17.9169 27.8739 18.1557 27.5161V27.5218C18.1557 27.5218 18.1672 27.4988 18.1956 27.4527C18.2524 27.366 18.2808 27.314 18.2808 27.314V27.2966C18.497 26.9215 18.9692 26.0614 19.6801 24.6415C20.6018 22.8059 21.4834 20.5143 21.4834 20.5143C21.4834 20.5143 21.563 21.0744 21.8362 22.0036C21.9954 22.552 22.331 23.1523 22.5984 23.7353C22.3823 24.0354 22.2514 24.2086 22.2514 24.2086C22.2514 24.2086 22.2514 24.2143 22.2569 24.2201C22.0863 24.4511 21.893 24.6994 21.6939 24.9418C20.9657 25.8191 20.1011 26.8235 19.9874 27.1121C19.8507 27.4527 19.8849 27.7064 20.1467 27.9028C20.34 28.053 20.6813 28.076 21.0397 28.0472C21.6939 28.0008 22.1547 27.8394 22.3765 27.7353C22.7291 27.6085 23.1388 27.4063 23.5256 27.1236C24.2367 26.5927 24.6691 25.8307 24.6291 24.8264C24.6064 24.2722 24.4299 23.718 24.2138 23.1987C24.2764 23.1062 24.3447 23.008 24.4073 22.9101C25.5338 21.2417 26.404 19.4122 26.404 19.4122C26.404 19.4122 26.4837 19.9719 26.7567 20.9013C26.8932 21.3689 27.1606 21.8826 27.4051 22.3846C26.347 23.2563 25.693 24.2665 25.4654 24.9301C25.0443 26.1597 25.3743 26.7136 25.9943 26.8409C26.2731 26.8986 26.6713 26.7657 26.9672 26.6387C27.3369 26.5117 27.7806 26.3097 28.1958 25.998C28.9069 25.4671 29.5953 24.7223 29.5498 23.7123C29.5327 23.2562 29.4076 22.8003 29.2426 22.3616C30.1356 21.9807 31.2963 21.7728 32.7752 21.946C35.9437 22.3212 36.5637 24.3298 36.4442 25.1667C36.3249 26.0095 35.6593 26.4714 35.4374 26.6098C35.2154 26.7484 35.1473 26.8004 35.1645 26.9043C35.1928 27.0543 35.2952 27.0486 35.4829 27.0138C35.7447 26.9677 37.144 26.3327 37.2064 24.78C37.2976 22.8175 35.4376 20.6588 32.1439 20.6761ZM7.72307 29.0283C6.67648 30.1885 5.2088 30.6272 4.57744 30.2577C3.90048 29.8596 4.16783 28.151 5.45912 26.9157C6.24415 26.1654 7.2567 25.4728 7.92796 25.0457C8.08154 24.9534 8.30345 24.8148 8.5765 24.6474C8.62202 24.6187 8.64474 24.6071 8.64474 24.6071C8.69588 24.5723 8.7528 24.5435 8.80973 24.5088C9.28172 26.2635 8.82667 27.8104 7.72307 29.0283ZM15.3685 23.7526C15.0044 24.6587 14.2364 26.9676 13.7701 26.8464C13.3719 26.7425 13.1272 24.982 13.6905 23.2505C13.9748 22.3789 14.5778 21.3399 14.9363 20.936C15.5107 20.2836 16.1421 20.0758 16.2901 20.3356C16.4891 20.6761 15.596 23.187 15.3685 23.7526ZM21.6827 26.812C21.5292 26.8927 21.3869 26.9446 21.3186 26.9042C21.2675 26.8753 21.3813 26.7656 21.3813 26.7656C21.3813 26.7656 22.1718 25.9056 22.4848 25.5129C22.6668 25.2822 22.8772 25.0108 23.1048 24.7108C23.1048 24.7394 23.1104 24.7685 23.1104 24.803C23.1049 25.8363 22.1265 26.5349 21.6827 26.812ZM26.5522 25.6863C26.4384 25.6055 26.4553 25.3342 26.8365 24.4914C26.9845 24.1623 27.3259 23.6083 27.9173 23.0772C27.9856 23.2965 28.0254 23.5043 28.0254 23.7005C28.0196 24.9993 27.1039 25.4842 26.5522 25.6863Z" fill="#272727"/>
</svg>

<svg width="38" height="38" viewBox="0 0 38 38" fill="none" xmlns="http://www.w3.org/2000/svg"><path d="M32.144 20.676a7.376 7.376 0 00-3.3.78c-.335-.688-.682-1.288-.739-1.738-.068-.525-.142-.837-.063-1.46.08-.624.438-1.507.433-1.57-.006-.064-.08-.381-.814-.387-.733-.006-1.365.144-1.439.34a7.166 7.166 0 00-.301 1.103c-.131.675-1.468 3.088-2.225 4.346-.25-.49-.46-.923-.506-1.27-.068-.525-.142-.837-.063-1.46.08-.623.439-1.507.433-1.57-.006-.063-.08-.381-.814-.387-.733-.005-1.365.145-1.439.34-.074.197-.153.659-.301 1.103-.148.445-1.929 4.462-2.395 5.507a28.8 28.8 0 01-.592 1.247c-.022.046-.04.075-.051.098.017-.029.029-.058.029-.046-.126.248-.2.386-.2.386v.006c-.096.185-.204.352-.256.352-.034 0-.108-.485.017-1.149.268-1.396.9-3.567.893-3.642-.005-.04.12-.415-.415-.617-.517-.19-.705.127-.75.127-.046 0-.08.115-.08.115s.574-2.447-1.104-2.447c-1.046 0-2.503 1.166-3.22 2.222-.449.248-1.422.785-2.445 1.357-.393.219-.797.444-1.178.658-.029-.03-.051-.058-.08-.087-2.036-2.205-5.796-3.763-5.637-6.725.057-1.079.427-3.913 7.23-7.353 5.575-2.817 10.035-2.043 10.803-.323 1.103 2.453-2.384 7.018-8.175 7.676-2.207.249-3.367-.617-3.657-.94-.302-.34-.348-.358-.461-.295-.188.104-.069.404 0 .583.17.456.881 1.264 2.093 1.668 1.064.352 3.652.549 6.78-.68 3.516-1.375 6.252-5.202 5.45-8.405-.819-3.255-6.137-4.323-11.172-2.51-2.998 1.079-6.24 2.776-8.572 4.986C1.09 13.248.647 15.54.829 16.497c.648 3.4 5.267 5.616 7.116 7.256l-.256.144c-.927.467-4.448 2.338-5.33 4.312-.996 2.24.165 3.844.927 4.063 2.378.67 4.812-.537 6.12-2.516 1.31-1.98 1.15-4.566.547-5.744-.006-.017-.017-.028-.023-.046a79.878 79.878 0 012.065-1.2c-.227.623-.392 1.373-.478 2.459-.102 1.27.416 2.914 1.087 3.56.296.284.654.29.876.29.785 0 1.137-.659 1.53-1.444.483-.958.91-2.072.91-2.072s-.535 3.013.927 3.013c.535 0 1.07-.698 1.309-1.056v.006s.011-.023.04-.07a2.26 2.26 0 00.085-.138v-.017c.216-.375.688-1.236 1.4-2.655.92-1.836 1.802-4.128 1.802-4.128s.08.56.353 1.49c.16.548.495 1.148.762 1.731-.216.3-.347.474-.347.474s0 .005.006.011c-.17.231-.364.48-.563.722-.728.877-1.593 1.881-1.707 2.17-.136.34-.102.594.16.79.193.151.534.174.893.145.654-.046 1.115-.208 1.337-.312a4.654 4.654 0 001.149-.611c.71-.531 1.143-1.293 1.103-2.298-.023-.554-.2-1.108-.415-1.627.062-.093.13-.191.193-.289 1.127-1.668 1.997-3.498 1.997-3.498s.08.56.353 1.49c.136.467.404.98.648 1.483-1.058.871-1.712 1.881-1.94 2.545-.42 1.23-.09 1.784.53 1.91.278.059.676-.074.972-.201a4.49 4.49 0 001.229-.641c.71-.53 1.4-1.276 1.354-2.286-.017-.456-.142-.912-.307-1.35.893-.381 2.053-.59 3.532-.416 3.169.375 3.789 2.384 3.67 3.22-.12.843-.786 1.305-1.008 1.444-.222.138-.29.19-.273.294.029.15.131.145.319.11.262-.046 1.661-.681 1.723-2.234.092-1.963-1.768-4.121-5.062-4.104zm-24.42 8.352c-1.048 1.16-2.515 1.6-3.147 1.23-.677-.398-.41-2.107.882-3.342.785-.75 1.798-1.443 2.469-1.87.154-.093.375-.231.648-.399a.992.992 0 01.069-.04c.05-.035.108-.063.165-.098.472 1.755.017 3.301-1.087 4.52zm7.644-5.275c-.364.906-1.132 3.215-1.598 3.093-.398-.104-.643-1.864-.08-3.596.285-.871.888-1.91 1.246-2.314.575-.652 1.206-.86 1.354-.6.2.34-.694 2.851-.921 3.417zm6.315 3.059c-.154.08-.296.133-.364.092-.052-.029.062-.138.062-.138s.79-.86 1.104-1.253c.182-.23.392-.502.62-.802 0 .028.005.058.005.092-.005 1.033-.983 1.732-1.427 2.009zm4.87-1.126c-.115-.08-.098-.352.284-1.195.148-.329.489-.883 1.08-1.414.069.22.108.427.108.623-.005 1.3-.921 1.784-1.473 1.986z" fill="#272727"/></svg>
